X: 11632
T: The VIRGIN LILY
T: From "The Agreeable Surprise."
C: Dr. Arnold.
Q: "Moderate."
%R: reel, march
B: W. Hamilton "Universal Tune-Book" Vol. 1 Glasgow 1844 p.163 #2
S: http://imslp.org/wiki/Hamilton's_Universal_Tune-Book_(Various)
Z: 2016 John Chambers <jc:trillian.mit.edu>
M: C
L: 1/8
K: Eb
%%slurgraces yes
%%graceslurs yes
% - - - - - - - - - - - - - - - - - - - - - - - - -
B2 |\
e3f g2G2 | F3G A2c2 |\
B2(EG) (BA)(GF) | {F}G4 z2G>=A |\
(B2df e)c(=AF) | B2(df ec)(=AF) |\
B2(c3/d//e//) d2c2 | B4 z2 |]
d>e |\
f2A2 G2(e>f) | g2B2 A2zA |\
G2c2 (ed)(c=B) | c4 z2c2 |\
_d3e c2e2 | =d2e2 B2zA |\
G2e2 (gf)(ed) | (3(egf) (3(edc) B2A2 |\
(GB)(eg) (gf)(ed) | e4 z2 |]
% - - - - - - - - - - - - - - - - - - - - - - - - -

%%sep 1 1 500
%%sep 1 1 500

